X:1
T:Rimsky-Korsakov Harmonic Exercises, Modulations (8)
T:Rimsky-Korsakov Harmonic Exercises, Modulations (8)
T:Realizations by S. Shchetnikov
T:"Practical Manual of Harmony" (1885)
C:Realizations by S. Shchetnikov
%%score { ( 1 2 ) | ( 3 4 ) }
L:1/8
Q:1/2=120
M:4/1
K:C
V:1 treble nm="Piano" snm="Pno."
V:2 treble 
V:3 bass 
V:4 bass 
V:1
"""^Fast modulations into the keys of the second degree of relationship""^Examples by Rimsky-Korsakov:""^C -- E♭""_C:" G8"""_E♭:""_C:""_{" _A8 _A8 G8 |] %1
[M:6/1]"""^a -- b""_a:" A8"" G8"""_{""_a:""_b:" G8 G8 ^F8 ^F8 |] %2
[M:4/1]"""^C -- E""^Exercise: compose fast modulations.\nRealizations:\n\n""_C:" E8"""_E:""_C:""_{" E8 ^D8 E8 |] %3
[M:5/1]"""^C -- g""_C:" c8"""_g:""_C:""_{" c8 c8 d8 _B8 |] %4
"""^C -- c""_C:" c8"""_C:""_c:""_{" c8 _e8 f8 _e8 |] %5
[M:4/1]"""^a -- f""_a:" c8"""_a:""_{""_f:" c8 c8 c8 |] %6
"""^a -- B♭""_a:" A8"""_B♭:""_{""_a:" A8 A8 _B8 |] %7
[M:4/1]"""^a -- A""_a:" A8"""_A:""_a:""_{" ^G8 ^G8 A8 |] %8
[M:5/1]"""^C -- A♭""_C:" c8"""_C:""_A♭:""_{" c8 _B8 _B8 _A8 |] %9
[M:4/1]"""^C -- A""_C:" c8"""_A:""_C:""_{" A8 ^G8 A8 |] %10
"""^C -- B♭""_C:" G8"""_C:""_B♭:""_{" A8 A8 _B8 |]"""^C -- B""_C:" c8"""_C:""_B:""_{" B8 ^A8 B8 |] %12
"""^C -- D♭""_C:" G8"""_C:""_D♭:""_{" _A8 _A8 _A8 |] %13
"""_C:""^C -- D" G8"""_C:""_D:""_{" G8 G8 ^F8 |]"""_C:""^C -- E♭" G8"""_C:""_E♭:""_{" _A8 _A8 G8 |] %15
"""_C:""^C -- b♭" c8"""_C:""_b♭:""_{" c8 c8 _B8 |] %16
[M:5/1]"""_C:""^C -- b" G8"""_C:""_b:""_{" G8 G8 ^F8 ^F8 |] %17
"""_a:""^a -- f♯" A8"""_a:""_f♯:""_{" B8 B8 ^c8 A8 |] %18
[M:4/1]"""_a:""_g:""_{""^a -- g" A8 G8 ^F8 G8 |] %19
[M:5/1]"""_a:""^a -- g♯" A8"""_a:""_g♯:""_{" ^G8 ^G8 ^^F8 ^G8 |] %20
[M:3/1]"""_a:""^a -- b♭" A8"""_a:""_b♭:""_{" A8 _B8 |] %21
[M:4/1]"""_a:""^a -- b" c8"""_a:""_b:""_{" B8 ^A8 B8 |] %22
[M:3/1]"""_a:""^a -- c" E8"""_a:""_c:""_{" G8 G8 |] %23
[M:4/1]"""_a:""^a -- c♯" A8"""_a:""_c♯:""_{" ^G8 ^G8 ^G8 |] %24
"""_a:""^a -- B" A8"""_a:""_B:""_{" G8 ^F8 ^F8 |]"""_a:""^a -- D" A8"""_a:""_D:""_{" G8 G8 ^F8 |] %26
V:2
 E8"" F8"" F8"" _E8 |][M:6/1] E8 E8"" D8"" ^C8"" ^C8"" D8 |][M:4/1] C8"" C8"" B,8"" B,8 |] %3
[M:5/1] G8"" F8"" G8"" A8"" G8 |] G8"" _A8"" _B8"" =B8"" c8 |][M:4/1] A8"" G8"" _B8"" _A8 |] %6
 E8"" F8"" F8"" F8 |][M:4/1] E8"" E8"" E8"" E8 |][M:5/1] G8"" _A8"" _A8"" G8"" _E8 |] %9
[M:4/1] G8"" F8"" E8"" E8 |] E8"" F8"" F8"" F8 |] G8"" G8"" ^F8"" ^F8 |] E8"" F8"" _G8"" F8 |] %13
 E8"" E8"" ^C8"" D8 |] E8"" F8"" F8"" _E8 |] G8"" A8"" A8"" F8 |] %16
[M:5/1] E8"" D8"" ^C8"" ^C8"" D8 |] E8"" E8"" ^F8"" ^G8"" ^F8 |][M:4/1]"" E8"" _E8"" D8"" D8 |] %19
[M:5/1] E8"" E8"" E8"" ^D8"" ^D8 |][M:3/1] E8"" F8"" F8 |][M:4/1] A8"" G8"" ^F8"" ^F8 |] %22
[M:3/1] C8"" D8"" _E8 |][M:4/1] E8"" E8"" ^F8"" E8 |] E8"" E8"" E8"" ^D8 |] E8"" D8"" E8"" D8 |] %26
V:3
 C8 C8 _B,8 _B,8 |][M:6/1] C8 C8 B,8 B,8 ^A,8 B,8 |][M:4/1] G,8 A,8 A,8 ^G,8 |] %3
[M:5/1] E8 F8 _E8 D8 D8 |] E8 F8 G8 G8 G8 |][M:4/1] E8 E8 E8 F8 |] C8 C8 _E8 D8 |] %7
[M:4/1] C8 B,8 D8 ^C8 |][M:5/1] E8 F8 F8 _E8 C8 |][M:4/1] E8 D8 D8 ^C8 |] C8 C8 _E8 D8 |] %11
 E8 E8 ^C8 ^D8 |] C8 C8 C8 _D8 |] C8 B,8 A,8 A,8 |] C8 C8 _B,8 _B,8 |] E8 F8 _E8 _D8 |] %16
[M:5/1] C8 B,8 B,8 ^A,8 B,8 |] C8 B,8 D8 ^C8 C8 |][M:4/1] C8 C8 C8 _B,8 |] %19
[M:5/1] C8 B,8 ^A,8 ^A,8 B,8 |][M:3/1] C8 C8 _D8 |][M:4/1] E8 E8 E8 D8 |][M:3/1] A,8 B,8 C8 |] %23
[M:4/1] C8 B,8 ^B,8 ^C8 |] C8 B,8 ^A,8 B,8 |] C8 B,8 A,8 A,8 |] %26
V:4
 C,8 F,8 D,8 _E,8 |][M:6/1] A,8 C8 G,8 E,8 ^F,8 B,,8 |][M:4/1] C,8 A,,8 B,,8 E,8 |] %3
[M:5/1] C8 A,8 G,8 ^F,8 G,8 |] C,8 F,8 _E,8 D,8 C,8 |][M:4/1] A,,8 C,8 C,8 F,8 |] %6
 A,8 F,8 F,8 _B,,8 |][M:4/1] A,,8 E,8 E,8 A,,8 |][M:5/1] C,8 F,8 _D,8 _E,8 _A,,8 |] %9
[M:4/1] C,8 D,8 E,8 A,,8 |] C,8 F,8 F,8 _B,,8 |] C,8 E,8 ^F,8 B,,8 |] C,8 F,8 _E,8 _D,8 |] %13
 C,8 E,8 A,,8 D,8 |] C,8 F,8 D,8 _E,8 |] C8 F,8 F,8 _B,8 |][M:5/1] C,8 G,8 E,8 ^F,8 B,,8 |] %17
 A,8 ^G,8 B,8 ^E,8 ^F,8 |][M:4/1] A,,8 C,8 A,,8 G,,8 |][M:5/1] A,,8 E,8 ^C,8 ^D,8 ^G,8 |] %20
[M:3/1] A,8 F,8 _B,8 |][M:4/1] A,8 E,8 ^F,8 B,8 |][M:3/1] A,,8 G,,8 C,8 |] %23
[M:4/1] A,8 E,8 ^D,8 ^C,8 |] A,8 E,8 ^F,8 B,,8 |] A,,8 B,,8 ^C,8 D,8 |] %26

